X: 1
T: Millbrae
M: 4/4
L: 1/8
R: reel
K: Amaj
|:af | eAAc eAce | fedf eaga | fedc dcBA | G2 B2 B2af |
eAAc eAce | fedf eaga | fedc dBed | c2 A2 A2 :|
a2 | gbeg begb | aAce agfe | fedc dcBA | G2 B2 B2 a2 |
gbeg begb | aAce agfe | fedc dBed | c2 A2 A2 a2 |
gbeg begb | aAce agfe | fedc dcBA | G2 B2 B2af |
eAAc eAce | fedf eaga | fedc dBed | c2 A2 A2 ||
